X: 0
T: Christ Was Born On Christmas Night
Z: Sir Thomas Wardle
Z: Copyright © 2003 by Douglas D. Anderson
Z: Released To The Public Domain
L: 1/4
M: 4/4
Q: 1/4=120
V: P1 name="Staff"
%%MIDI program 1 19
K: F
[V: P1]  F3/ E/ F G | A G F2 | A3/ B/ c A | A2 G2 | d3/ B/ c3/ A/ | B3/ G/ A2 | B d c A | G2 F2 |"^Chorus" d d d d | c c c2 | B3/ d/ c A | A2 G2 | A3/ A/ G A | F D C2 | B d c3/ A/ | G2 F2|]
w: Christ was born on Christ- mas night, Sing the Car- ol gai- ly; King of Love and Lord of Light Praise Him, Praise Him dai- ly. Wel- come Christ- mas! Wel- come Yule! Mis- tle toe and hol- ly! Be ye me- rry, gen- tles all, Mirth need not be fol- ly.

